icons/modern/low-battery.svg

<svg width="32" height="32" viewBox="0 0 32 32" fill="none" xmlns="http://www.w3.org/2000/svg">
<g filter="url(#filter0_i_4791_874)">
<path d="M12.9727 2.77661C12.9727 2.3624 13.3084 2.02661 13.7227 2.02661H18.2773C18.6916 2.02661 19.0273 2.3624 19.0273 2.77661V5.96411H12.9727V2.77661Z" fill="url(#paint0_linear_4791_874)"/>
<path d="M12.9727 2.77661C12.9727 2.3624 13.3084 2.02661 13.7227 2.02661H18.2773C18.6916 2.02661 19.0273 2.3624 19.0273 2.77661V5.96411H12.9727V2.77661Z" fill="url(#paint1_radial_4791_874)"/>
</g>
<g filter="url(#filter1_i_4791_874)">
<path d="M7.97656 6.03442C7.97656 4.94711 8.858 4.06567 9.94531 4.06567H22.0625C23.1498 4.06567 24.0312 4.94711 24.0312 6.03442H7.97656Z" fill="url(#paint2_linear_4791_874)"/>
<path d="M7.97656 6.03442C7.97656 4.94711 8.858 4.06567 9.94531 4.06567H22.0625C23.1498 4.06567 24.0312 4.94711 24.0312 6.03442H7.97656Z" fill="url(#paint3_radial_4791_874)"/>
</g>
<path d="M7.97656 28.0188C7.97656 29.1061 8.858 29.9875 9.94531 29.9875H22.0625C23.1498 29.9875 24.0312 29.1061 24.0312 28.0188H7.97656Z" fill="url(#paint4_linear_4791_874)"/>
<path d="M7.97656 28.0188C7.97656 29.1061 8.858 29.9875 9.94531 29.9875H22.0625C23.1498 29.9875 24.0312 29.1061 24.0312 28.0188H7.97656Z" fill="url(#paint5_linear_4791_874)"/>
<path d="M7.97656 28.0188C7.97656 29.1061 8.858 29.9875 9.94531 29.9875H22.0625C23.1498 29.9875 24.0312 29.1061 24.0312 28.0188H7.97656Z" fill="url(#paint6_radial_4791_874)"/>
<rect x="7.97656" y="20.0032" width="16.0547" height="8.01562" fill="url(#paint7_linear_4791_874)"/>
<rect x="7.97656" y="20.0032" width="16.0547" height="8.01562" fill="url(#paint8_radial_4791_874)"/>
<rect x="7.97656" y="20.0032" width="16.0547" height="8.01562" fill="url(#paint9_radial_4791_874)"/>
<rect width="16.0547" height="13.9688" transform="matrix(1 0 0 -1 7.97656 20.0032)" fill="url(#paint10_radial_4791_874)"/>
<g filter="url(#filter2_d_4791_874)">
<path d="M15.3844 8.67505C15.1635 8.67505 14.9844 8.85413 14.9844 9.07505V9.91802C14.9844 9.94563 14.962 9.96802 14.9344 9.96802H14.1188C13.8978 9.96802 13.7188 10.1471 13.7188 10.368V11.5993C13.7188 11.8202 13.8978 11.9993 14.1188 11.9993H14.9344C14.962 11.9993 14.9844 12.0217 14.9844 12.0493V12.8922C14.9844 13.1132 15.1635 13.2922 15.3844 13.2922H16.6156C16.8365 13.2922 17.0156 13.1132 17.0156 12.8922V12.0493C17.0156 12.0217 17.038 11.9993 17.0656 11.9993H17.8812C18.1022 11.9993 18.2812 11.8202 18.2812 11.5993V10.368C18.2812 10.1471 18.1022 9.96802 17.8812 9.96802H17.0656C17.038 9.96802 17.0156 9.94563 17.0156 9.91802V9.07505C17.0156 8.85413 16.8365 8.67505 16.6156 8.67505H15.3844Z" fill="#F6ECFF"/>
</g>
<g filter="url(#filter3_f_4791_874)">
<path d="M17.8812 22.9524C18.1022 22.9524 18.2813 23.1315 18.2812 23.3524V24.5836C18.2812 24.8046 18.1022 24.9836 17.8812 24.9836L14.1188 24.9836C13.8978 24.9836 13.7187 24.8046 13.7188 24.5836L13.7188 23.3524C13.7188 23.1315 13.8978 22.9524 14.1188 22.9524L17.8812 22.9524Z" fill="#C4345E"/>
</g>
<path d="M17.8812 22.9524C18.1022 22.9524 18.2813 23.1315 18.2812 23.3524V24.5836C18.2812 24.8046 18.1022 24.9836 17.8812 24.9836L14.1188 24.9836C13.8978 24.9836 13.7187 24.8046 13.7188 24.5836L13.7188 23.3524C13.7188 23.1315 13.8978 22.9524 14.1188 22.9524L17.8812 22.9524Z" fill="#F8EBFF"/>
<defs>
<filter id="filter0_i_4791_874" x="12.9727" y="2.02661" width="6.05469" height="4.0375" filterUnits="userSpaceOnUse" color-interpolation-filters="sRGB">
<feFlood flood-opacity="0" result="BackgroundImageFix"/>
<feBlend mode="normal" in="SourceGraphic" in2="BackgroundImageFix" result="shape"/>
<feColorMatrix in="SourceAlpha" type="matrix" values="0 0 0 0 0 0 0 0 0 0 0 0 0 0 0 0 0 0 127 0" result="hardAlpha"/>
<feOffset dy="0.1"/>
<feGaussianBlur stdDeviation="0.2"/>
<feComposite in2="hardAlpha" operator="arithmetic" k2="-1" k3="1"/>
<feColorMatrix type="matrix" values="0 0 0 0 0.690196 0 0 0 0 0.690196 0 0 0 0 0.690196 0 0 0 1 0"/>
<feBlend mode="normal" in2="shape" result="effect1_innerShadow_4791_874"/>
</filter>
<filter id="filter1_i_4791_874" x="7.97656" y="4.06567" width="16.3047" height="2.06875" filterUnits="userSpaceOnUse" color-interpolation-filters="sRGB">
<feFlood flood-opacity="0" result="BackgroundImageFix"/>
<feBlend mode="normal" in="SourceGraphic" in2="BackgroundImageFix" result="shape"/>
<feColorMatrix in="SourceAlpha" type="matrix" values="0 0 0 0 0 0 0 0 0 0 0 0 0 0 0 0 0 0 127 0" result="hardAlpha"/>
<feOffset dx="0.25" dy="0.1"/>
<feGaussianBlur stdDeviation="0.25"/>
<feComposite in2="hardAlpha" operator="arithmetic" k2="-1" k3="1"/>
<feColorMatrix type="matrix" values="0 0 0 0 0.564706 0 0 0 0 0.560784 0 0 0 0 0.564706 0 0 0 1 0"/>
<feBlend mode="normal" in2="shape" result="effect1_innerShadow_4791_874"/>
</filter>
<filter id="filter2_d_4791_874" x="13.6187" y="8.62505" width="4.7625" height="4.81719" filterUnits="userSpaceOnUse" color-interpolation-filters="sRGB">
<feFlood flood-opacity="0" result="BackgroundImageFix"/>
<feColorMatrix in="SourceAlpha" type="matrix" values="0 0 0 0 0 0 0 0 0 0 0 0 0 0 0 0 0 0 127 0" result="hardAlpha"/>
<feOffset dy="0.05"/>
<feGaussianBlur stdDeviation="0.05"/>
<feComposite in2="hardAlpha" operator="out"/>
<feColorMatrix type="matrix" values="0 0 0 0 0.572549 0 0 0 0 0.537255 0 0 0 0 0.607843 0 0 0 1 0"/>
<feBlend mode="normal" in2="BackgroundImageFix" result="effect1_dropShadow_4791_874"/>
<feBlend mode="normal" in="SourceGraphic" in2="effect1_dropShadow_4791_874" result="shape"/>
</filter>
<filter id="filter3_f_4791_874" x="11.7188" y="20.9524" width="8.5625" height="6.03125" filterUnits="userSpaceOnUse" color-interpolation-filters="sRGB">
<feFlood flood-opacity="0" result="BackgroundImageFix"/>
<feBlend mode="normal" in="SourceGraphic" in2="BackgroundImageFix" result="shape"/>
<feGaussianBlur stdDeviation="1" result="effect1_foregroundBlur_4791_874"/>
</filter>
<linearGradient id="paint0_linear_4791_874" x1="12.8125" y1="3.55005" x2="17.7813" y2="3.55005" gradientUnits="userSpaceOnUse">
<stop stop-color="#8B8B8C"/>
<stop offset="0.994377" stop-color="#D0D0D1"/>
</linearGradient>
<radialGradient id="paint1_radial_4791_874" cx="0" cy="0" r="1" gradientUnits="userSpaceOnUse" gradientTransform="translate(17.4688 2.48755) rotate(90) scale(0.484375 2.86899)">
<stop offset="0.225806" stop-color="#DCDBDD"/>
<stop offset="1" stop-color="#CDCDCE" stop-opacity="0"/>
</radialGradient>
<linearGradient id="paint2_linear_4791_874" x1="19.4375" y1="5.5813" x2="8.53125" y2="5.5813" gradientUnits="userSpaceOnUse">
<stop stop-color="#CFCDD0"/>
<stop offset="1" stop-color="#959396"/>
</linearGradient>
<radialGradient id="paint3_radial_4791_874" cx="0" cy="0" r="1" gradientUnits="userSpaceOnUse" gradientTransform="translate(20.6562 6.03442) rotate(-90) scale(1.60938 9.71875)">
<stop stop-color="#E7E4EA"/>
<stop offset="1" stop-color="#D5D4D6" stop-opacity="0"/>
</radialGradient>
<linearGradient id="paint4_linear_4791_874" x1="9.40625" y1="29.5813" x2="22.9063" y2="29.4876" gradientUnits="userSpaceOnUse">
<stop stop-color="#9A8AAB"/>
<stop offset="1" stop-color="#C4BBCF"/>
</linearGradient>
<linearGradient id="paint5_linear_4791_874" x1="16.0039" y1="29.9875" x2="16.0039" y2="28.6438" gradientUnits="userSpaceOnUse">
<stop offset="0.0930233" stop-color="#9B74BD"/>
<stop offset="1" stop-color="#A089B8" stop-opacity="0"/>
</linearGradient>
<radialGradient id="paint6_radial_4791_874" cx="0" cy="0" r="1" gradientUnits="userSpaceOnUse" gradientTransform="translate(20.625 27.5188) rotate(90) scale(1.48438 8.5625)">
<stop offset="0.4" stop-color="#DAD1E4"/>
<stop offset="1" stop-color="#CABBDB" stop-opacity="0"/>
</radialGradient>
<linearGradient id="paint7_linear_4791_874" x1="21.75" y1="27.55" x2="9.09375" y2="27.55" gradientUnits="userSpaceOnUse">
<stop stop-color="#E84484"/>
<stop offset="1" stop-color="#BD4055"/>
</linearGradient>
<radialGradient id="paint8_radial_4791_874" cx="0" cy="0" r="1" gradientUnits="userSpaceOnUse" gradientTransform="translate(15.5 20.0032) rotate(77.8853) scale(9.38079 18.789)">
<stop offset="0.594542" stop-color="#C14A79" stop-opacity="0"/>
<stop offset="1" stop-color="#C14A79"/>
</radialGradient>
<radialGradient id="paint9_radial_4791_874" cx="0" cy="0" r="1" gradientUnits="userSpaceOnUse" gradientTransform="translate(19.625 16.9563) rotate(90) scale(5.65625 12.7973)">
<stop stop-color="#EE4C85"/>
<stop offset="1" stop-color="#EE4C85" stop-opacity="0"/>
</radialGradient>
<radialGradient id="paint10_radial_4791_874" cx="0" cy="0" r="1" gradientUnits="userSpaceOnUse" gradientTransform="translate(11.6484) rotate(90) scale(24.2031 11.6484)">
<stop offset="0.282424" stop-color="#B9B2BF"/>
<stop offset="1" stop-color="#938D99"/>
</radialGradient>
</defs>
</svg>

<svg width="32" height="32" fill="none" xmlns="http://www.w3.org/2000/svg"><g filter="url(#a)"><path d="M12.973 2.777a.75.75 0 0 1 .75-.75h4.554a.75.75 0 0 1 .75.75v3.187h-6.054V2.777Z" fill="url(#b)"/><path d="M12.973 2.777a.75.75 0 0 1 .75-.75h4.554a.75.75 0 0 1 .75.75v3.187h-6.054V2.777Z" fill="url(#c)"/></g><g filter="url(#d)"><path d="M7.977 6.034c0-1.087.881-1.968 1.968-1.968h12.117c1.088 0 1.97.881 1.97 1.968H7.976Z" fill="url(#e)"/><path d="M7.977 6.034c0-1.087.881-1.968 1.968-1.968h12.117c1.088 0 1.97.881 1.97 1.968H7.976Z" fill="url(#f)"/></g><path d="M7.977 28.019c0 1.087.881 1.969 1.968 1.969h12.117a1.969 1.969 0 0 0 1.97-1.97H7.976Z" fill="url(#g)"/><path d="M7.977 28.019c0 1.087.881 1.969 1.968 1.969h12.117a1.969 1.969 0 0 0 1.97-1.97H7.976Z" fill="url(#h)"/><path d="M7.977 28.019c0 1.087.881 1.969 1.968 1.969h12.117a1.969 1.969 0 0 0 1.97-1.97H7.976Z" fill="url(#i)"/><path fill="url(#j)" d="M7.977 20.003h16.055v8.016H7.977z"/><path fill="url(#k)" d="M7.977 20.003h16.055v8.016H7.977z"/><path fill="url(#l)" d="M7.977 20.003h16.055v8.016H7.977z"/><path transform="matrix(1 0 0 -1 7.977 20.003)" fill="url(#m)" d="M0 0h16.055v13.969H0z"/><g filter="url(#n)"><path d="M15.384 8.675a.4.4 0 0 0-.4.4v.843a.05.05 0 0 1-.05.05h-.815a.4.4 0 0 0-.4.4v1.231c0 .221.179.4.4.4h.815a.05.05 0 0 1 .05.05v.843c0 .221.18.4.4.4h1.232a.4.4 0 0 0 .4-.4v-.843a.05.05 0 0 1 .05-.05h.815a.4.4 0 0 0 .4-.4v-1.231a.4.4 0 0 0-.4-.4h-.815a.05.05 0 0 1-.05-.05v-.843a.4.4 0 0 0-.4-.4h-1.232Z" fill="#F6ECFF"/></g><g filter="url(#o)"><path d="M17.881 22.952a.4.4 0 0 1 .4.4v1.232a.4.4 0 0 1-.4.4H14.12a.4.4 0 0 1-.4-.4v-1.232a.4.4 0 0 1 .4-.4h3.762Z" fill="#C4345E"/></g><path d="M17.881 22.952a.4.4 0 0 1 .4.4v1.232a.4.4 0 0 1-.4.4H14.12a.4.4 0 0 1-.4-.4v-1.232a.4.4 0 0 1 .4-.4h3.762Z" fill="#F8EBFF"/><defs><radialGradient id="c" cx="0" cy="0" r="1" gradientUnits="userSpaceOnUse" gradientTransform="matrix(0 .48438 -2.86899 0 17.469 2.488)"><stop offset=".226" stop-color="#DCDBDD"/><stop offset="1" stop-color="#CDCDCE" stop-opacity="0"/></radialGradient><radialGradient id="f" cx="0" cy="0" r="1" gradientUnits="userSpaceOnUse" gradientTransform="matrix(0 -1.60938 9.71875 0 20.656 6.034)"><stop stop-color="#E7E4EA"/><stop offset="1" stop-color="#D5D4D6" stop-opacity="0"/></radialGradient><radialGradient id="i" cx="0" cy="0" r="1" gradientUnits="userSpaceOnUse" gradientTransform="matrix(0 1.48438 -8.5625 0 20.625 27.519)"><stop offset=".4" stop-color="#DAD1E4"/><stop offset="1" stop-color="#CABBDB" stop-opacity="0"/></radialGradient><radialGradient id="k" cx="0" cy="0" r="1" gradientUnits="userSpaceOnUse" gradientTransform="matrix(1.96874 9.17187 -18.37056 3.94324 15.5 20.003)"><stop offset=".595" stop-color="#C14A79" stop-opacity="0"/><stop offset="1" stop-color="#C14A79"/></radialGradient><radialGradient id="l" cx="0" cy="0" r="1" gradientUnits="userSpaceOnUse" gradientTransform="matrix(0 5.65625 -12.7973 0 19.625 16.956)"><stop stop-color="#EE4C85"/><stop offset="1" stop-color="#EE4C85" stop-opacity="0"/></radialGradient><radialGradient id="m" cx="0" cy="0" r="1" gradientUnits="userSpaceOnUse" gradientTransform="matrix(0 24.2031 -11.6484 0 11.648 0)"><stop offset=".282" stop-color="#B9B2BF"/><stop offset="1" stop-color="#938D99"/></radialGradient><linearGradient id="b" x1="12.813" y1="3.55" x2="17.781" y2="3.55" gradientUnits="userSpaceOnUse"><stop stop-color="#8B8B8C"/><stop offset=".994" stop-color="#D0D0D1"/></linearGradient><linearGradient id="e" x1="19.438" y1="5.581" x2="8.531" y2="5.581" gradientUnits="userSpaceOnUse"><stop stop-color="#CFCDD0"/><stop offset="1" stop-color="#959396"/></linearGradient><linearGradient id="g" x1="9.406" y1="29.581" x2="22.906" y2="29.488" gradientUnits="userSpaceOnUse"><stop stop-color="#9A8AAB"/><stop offset="1" stop-color="#C4BBCF"/></linearGradient><linearGradient id="h" x1="16.004" y1="29.988" x2="16.004" y2="28.644" gradientUnits="userSpaceOnUse"><stop offset=".093" stop-color="#9B74BD"/><stop offset="1" stop-color="#A089B8" stop-opacity="0"/></linearGradient><linearGradient id="j" x1="21.75" y1="27.55" x2="9.094" y2="27.55" gradientUnits="userSpaceOnUse"><stop stop-color="#E84484"/><stop offset="1" stop-color="#BD4055"/></linearGradient><filter id="a" x="12.973" y="2.027" width="6.055" height="4.037" filterUnits="userSpaceOnUse" color-interpolation-filters="sRGB"><feFlood flood-opacity="0" result="BackgroundImageFix"/><feBlend in="SourceGraphic" in2="BackgroundImageFix" result="shape"/><feColorMatrix in="SourceAlpha" values="0 0 0 0 0 0 0 0 0 0 0 0 0 0 0 0 0 0 127 0" result="hardAlpha"/><feOffset dy=".1"/><feGaussianBlur stdDeviation=".2"/><feComposite in2="hardAlpha" operator="arithmetic" k2="-1" k3="1"/><feColorMatrix values="0 0 0 0 0.690196 0 0 0 0 0.690196 0 0 0 0 0.690196 0 0 0 1 0"/><feBlend in2="shape" result="effect1_innerShadow_4791_874"/></filter><filter id="d" x="7.977" y="4.066" width="16.305" height="2.069" filterUnits="userSpaceOnUse" color-interpolation-filters="sRGB"><feFlood flood-opacity="0" result="BackgroundImageFix"/><feBlend in="SourceGraphic" in2="BackgroundImageFix" result="shape"/><feColorMatrix in="SourceAlpha" values="0 0 0 0 0 0 0 0 0 0 0 0 0 0 0 0 0 0 127 0" result="hardAlpha"/><feOffset dx=".25" dy=".1"/><feGaussianBlur stdDeviation=".25"/><feComposite in2="hardAlpha" operator="arithmetic" k2="-1" k3="1"/><feColorMatrix values="0 0 0 0 0.564706 0 0 0 0 0.560784 0 0 0 0 0.564706 0 0 0 1 0"/><feBlend in2="shape" result="effect1_innerShadow_4791_874"/></filter><filter id="n" x="13.619" y="8.625" width="4.763" height="4.817" filterUnits="userSpaceOnUse" color-interpolation-filters="sRGB"><feFlood flood-opacity="0" result="BackgroundImageFix"/><feColorMatrix in="SourceAlpha" values="0 0 0 0 0 0 0 0 0 0 0 0 0 0 0 0 0 0 127 0" result="hardAlpha"/><feOffset dy=".05"/><feGaussianBlur stdDeviation=".05"/><feComposite in2="hardAlpha" operator="out"/><feColorMatrix values="0 0 0 0 0.572549 0 0 0 0 0.537255 0 0 0 0 0.607843 0 0 0 1 0"/><feBlend in2="BackgroundImageFix" result="effect1_dropShadow_4791_874"/><feBlend in="SourceGraphic" in2="effect1_dropShadow_4791_874" result="shape"/></filter><filter id="o" x="11.719" y="20.952" width="8.563" height="6.031" filterUnits="userSpaceOnUse" color-interpolation-filters="sRGB"><feFlood flood-opacity="0" result="BackgroundImageFix"/><feBlend in="SourceGraphic" in2="BackgroundImageFix" result="shape"/><feGaussianBlur stdDeviation="1" result="effect1_foregroundBlur_4791_874"/></filter></defs></svg>
